X: 28
T:La chaussette
R:---
C:Limousin ?
I:abc2nwc
Z:Transcrit et/ou corrig? par Michel BELLON - 2005-03-17
Z:Pour toute observation mailto:galouvielle@free.fr
M:2/4
L:1/16
K:Cmaj
P:A
G2G2 c2c2|d2e2 c4|d2cB A2G2| [1G2B2 A2G2:| [2A2B2 c4
P:B
|:g2fe d2c2|d2f2 e2c2|g2fe d2c2|d2B2 c4:|
<end>
<start>
